pix_core/t/viewdetails.svg

<svg preserveAspectRatio="xMinYMid meet" viewBox="0 0 512 512" xmlns="http://www.w3.org/2000/svg"><path d="m416 208c0 45.9-14.9 88.3-40 122.7l126.6 126.7c12.5 12.5 12.5 32.8 0 45.3s-32.8 12.5-45.3 0l-126.6-126.7c-34.4 25.2-76.8 40-122.7 40-114.9 0-208-93.1-208-208s93.1-208 208-208 208 93.1 208 208zm-232 88c0 13.3 10.7 24 24 24s24-10.7 24-24v-64h64c13.3 0 24-10.7 24-24s-10.7-24-24-24h-64v-64c0-13.3-10.7-24-24-24s-24 10.7-24 24v64h-64c-13.3 0-24 10.7-24 24s10.7 24 24 24h64z" fill="#fff"/></svg>

<svg xmlns="http://www.w3.org/2000/svg" viewBox="0 0 512 512" preserveAspectRatio="xMinYMid meet"><!--!Font Awesome Free 6.5.2 by @fontawesome - https://fontawesome.com License - https://fontawesome.com/license/free Copyright 2024 Fonticons, Inc.--><path fill="#fff" d="M416 208c0 45.9-14.9 88.3-40 122.7L502.6 457.4c12.5 12.5 12.5 32.8 0 45.3s-32.8 12.5-45.3 0L330.7 376c-34.4 25.2-76.8 40-122.7 40C93.1 416 0 322.9 0 208S93.1 0 208 0S416 93.1 416 208zM184 296c0 13.3 10.7 24 24 24s24-10.7 24-24V232h64c13.3 0 24-10.7 24-24s-10.7-24-24-24H232V120c0-13.3-10.7-24-24-24s-24 10.7-24 24v64H120c-13.3 0-24 10.7-24 24s10.7 24 24 24h64v64z"/></svg>
